X: 1
T: the Humours of Scarriff (S\'agra Scairb)
T: the Cooraclare
R: reel
Z: 2020 John Chambers <jc:trillian.mit.edu>
S: https://www.facebook.com/groups/Fiddletuneoftheday/ 2020-09-09
S: https://www.facebook.com/groups/Fiddletuneoftheday/photos/
M: C|
L: 1/8
K: Ddor
[|\
"Dm"d3e  f2ed | "C"cAGc AcGc | "Dm"Adde fded | "C"cAGE "Dm"{G}EDDA |
"Dm"ddef eded | "C"cAGc AcGc | "Dm"Adde fded | "C"cAGE "Dm"{G}EDD |]
g | "C"ecgc acgc | ecgc "Am"ea{b}ag | "C"ecgc acgc | edcd "G"edd ||
g | "C"ecgc acgc | ecgc "Am"ea{b}ag | a_bag efed | "C"cAGE {G}"Dm"EDD2 |]
